packages/foundations/assets/icons/functional/images/social/share_16.svg

<svg width="16" height="16" viewBox="0 0 16 16" fill="none" xmlns="http://www.w3.org/2000/svg">
<g clip-path="url(#clip0_187_427)">
<path fill-rule="evenodd" clip-rule="evenodd" d="M11.6046 1.59998C13.1576 1.59998 14.4 2.84401 14.4 4.39895C14.4 5.93754 13.1576 7.19793 11.6046 7.19793C10.7709 7.19793 10.0189 6.82144 9.51215 6.23217L7.12541 7.378C7.17441 7.57442 7.19074 7.7872 7.19074 7.99998C7.19074 8.21275 7.17441 8.42553 7.12541 8.62195L9.49573 9.75134C10.0189 9.17851 10.7709 8.80202 11.6046 8.80202C13.1413 8.80202 14.4 10.0624 14.4 11.601C14.4 13.1559 13.1413 14.4 11.6046 14.4C10.0516 14.4 8.80921 13.1559 8.80921 11.601C8.80921 11.4701 8.82554 11.3227 8.84188 11.2082L6.32438 10.0296C5.83395 10.5043 5.14734 10.799 4.3954 10.799C2.85868 10.799 1.59998 9.53856 1.59998 7.99998C1.59998 6.44503 2.85868 5.201 4.3954 5.201C5.14734 5.201 5.83395 5.49563 6.34071 5.97033L8.84188 4.77544C8.82554 4.66088 8.80921 4.52987 8.80921 4.39895C8.80921 2.84401 10.0679 1.59998 11.6046 1.59998ZM11.6046 10.4061C10.9507 10.4061 10.4113 10.9462 10.4113 11.601C10.4113 12.2557 10.9507 12.7959 11.6046 12.7959C12.2585 12.7959 12.7979 12.2557 12.7979 11.601C12.7979 10.9462 12.2585 10.4061 11.6046 10.4061ZM4.3954 6.80509C3.74146 6.80509 3.20203 7.32885 3.20203 7.99998C3.20203 8.65475 3.74146 9.19486 4.3954 9.19486C5.06559 9.19486 5.60511 8.65475 5.60511 7.99998C5.60511 7.32885 5.06559 6.80509 4.3954 6.80509ZM11.6046 3.18771C10.9507 3.18771 10.4113 3.72783 10.4113 4.39895C10.4113 5.05372 10.9507 5.59384 11.6046 5.59384C12.2748 5.59384 12.8143 5.05372 12.8143 4.39895C12.8143 3.72783 12.2748 3.18771 11.6046 3.18771Z" fill="#1A1C1F"/>
</g>
<defs>
<clipPath id="clip0_187_427">
<rect width="16" height="16" fill="white"/>
</clipPath>
</defs>
</svg>

<svg xmlns="http://www.w3.org/2000/svg" width="16" height="16" fill="none"><g clip-path="url(#a)"><path fill="#1A1C1F" fill-rule="evenodd" d="M11.605 1.6A2.786 2.786 0 0 1 14.4 4.399a2.796 2.796 0 0 1-2.795 2.799 2.76 2.76 0 0 1-2.093-.966L7.125 7.378c.05.196.066.41.066.622s-.017.426-.066.622l2.37 1.13a2.87 2.87 0 0 1 2.11-.95 2.806 2.806 0 0 1 2.795 2.799 2.796 2.796 0 0 1-2.795 2.799 2.786 2.786 0 0 1-2.796-2.799c0-.13.017-.278.033-.393L6.324 10.03c-.49.474-1.177.769-1.929.769A2.807 2.807 0 0 1 1.6 8a2.796 2.796 0 0 1 2.795-2.799c.752 0 1.439.295 1.946.77l2.5-1.196A3 3 0 0 1 8.81 4.4 2.796 2.796 0 0 1 11.605 1.6m0 8.806a1.2 1.2 0 0 0-1.194 1.195 1.2 1.2 0 0 0 1.194 1.195 1.2 1.2 0 0 0 1.193-1.195 1.2 1.2 0 0 0-1.193-1.195m-7.21-3.6A1.19 1.19 0 0 0 3.202 8a1.2 1.2 0 0 0 2.403 0c0-.671-.54-1.195-1.21-1.195m7.21-3.618a1.204 1.204 0 0 0 0 2.406c.67 0 1.21-.54 1.21-1.195 0-.671-.54-1.211-1.21-1.211" clip-rule="evenodd"/></g><defs><clipPath id="a"><path fill="#fff" d="M0 0h16v16H0z"/></clipPath></defs></svg>
